X: 5035
T: Brian O'Lynn
R: jig
M: 6/8
K: Adorian
B|:"Am"cAd cAG|"Em"EDE GAB|"Am"cAd cAG|"Am"EAA A2B|"Am"ccc cAG|
"Em"EDE GAB|"Am"cde =fed|1 "Am"cAA A2B:|2 "Am"cAA A2e/f/||
"Em"ggg ged|"Am"cAB cde|"Am"eaa age|"D"ed^c def|
"G"gaf ged|"Am"cAB cde|"Am"=fed cAG|"Am" EAA A2e/f/:|

